Numix-GalliumOS/64/devices/media-dvd.svg

<?xml version="1.0" encoding="UTF-8" standalone="yes"?>
<svg xmlns="http://www.w3.org/2000/svg" xmlns:xlink="http://www.w3.org/1999/xlink" width="64px" height="64px" viewBox="0 0 48 48" version="1.1">
  <g id="surface1">
    <path style=" stroke:none;fill-rule:nonzero;fill:rgb(93.333333%,90.980392%,83.529412%);fill-opacity:1;" d="M 24 7.5 C 14.886719 7.5 7.5 14.886719 7.5 24 C 7.5 33.113281 14.886719 40.5 24 40.5 C 33.113281 40.5 40.5 33.113281 40.5 24 C 40.5 14.886719 33.113281 7.5 24 7.5 Z M 24 18.84375 C 26.839844 18.84375 29.15625 21.160156 29.15625 24 C 29.15625 26.839844 26.839844 29.15625 24 29.15625 C 21.160156 29.15625 18.84375 26.839844 18.84375 24 C 18.84375 21.160156 21.160156 18.84375 24 18.84375 Z M 24 19.875 C 21.714844 19.875 19.875 21.714844 19.875 24 C 19.875 26.285156 21.714844 28.125 24 28.125 C 26.285156 28.125 28.125 26.285156 28.125 24 C 28.125 21.714844 26.285156 19.875 24 19.875 Z M 24 21.421875 C 25.425781 21.421875 26.578125 22.574219 26.578125 24 C 26.578125 25.425781 25.425781 26.578125 24 26.578125 C 22.574219 26.578125 21.421875 25.425781 21.421875 24 C 21.421875 22.574219 22.574219 21.421875 24 21.421875 Z M 24 21.421875 "/>
    <path style=" stroke:none;fill-rule:nonzero;fill:rgb(39.607843%,48.235294%,51.372549%);fill-opacity:0.254902;" d="M 22.214844 22.15625 C 22.617188 21.769531 23.132812 21.507812 23.6875 21.4375 L 23.488281 19.921875 C 22.597656 20.03125 21.785156 20.421875 21.144531 21.042969 Z M 20.425781 20.3125 C 21.226562 19.542969 22.261719 19.046875 23.367188 18.90625 L 21.933594 7.648438 C 18.386719 8.101562 15.070312 9.683594 12.515625 12.160156 Z M 20.425781 20.3125 "/>
    <path style=" stroke:none;fill-rule:nonzero;fill:rgb(100%,99.607843%,98.431373%);fill-opacity:0.462745;" d="M 26.40625 24.894531 C 26.210938 25.417969 25.859375 25.875 25.386719 26.179688 L 26.21875 27.460938 C 26.976562 26.976562 27.539062 26.273438 27.851562 25.4375 Z M 28.8125 25.789062 C 28.421875 26.828125 27.703125 27.722656 26.765625 28.324219 L 32.910156 37.867188 C 35.917969 35.929688 38.226562 33.074219 39.46875 29.738281 Z M 28.8125 25.789062 "/>
    <path style=" stroke:none;fill-rule:nonzero;fill:rgb(39.607843%,48.235294%,51.372549%);fill-opacity:0.254902;" d="M 25.847656 25.78125 C 25.460938 26.183594 24.953125 26.460938 24.398438 26.550781 L 24.652344 28.058594 C 25.539062 27.917969 26.335938 27.5 26.957031 26.855469 Z M 27.699219 27.5625 C 26.925781 28.359375 25.910156 28.890625 24.808594 29.070312 L 26.628906 40.269531 C 30.160156 39.695312 33.417969 38 35.886719 35.4375 Z M 27.699219 27.5625 "/>
    <path style=" stroke:none;fill-rule:nonzero;fill:rgb(100%,99.607843%,98.431373%);fill-opacity:0.427451;" d="M 21.609375 23.0625 C 21.816406 22.539062 22.175781 22.089844 22.65625 21.796875 L 21.847656 20.5 C 21.082031 20.96875 20.503906 21.660156 20.175781 22.492188 Z M 19.222656 22.121094 C 19.632812 21.089844 20.367188 20.207031 21.316406 19.621094 L 15.351562 9.96875 C 12.3125 11.847656 9.949219 14.660156 8.644531 17.972656 Z M 19.222656 22.121094 "/>
    <path style=" stroke:none;fill-rule:nonzero;fill:rgb(39.607843%,48.235294%,51.372549%);fill-opacity:1;" d="M 24 18 C 20.6875 18 18 20.6875 18 24 C 18 27.3125 20.6875 30 24 30 C 27.3125 30 30 27.3125 30 24 C 30 20.6875 27.3125 18 24 18 Z M 24 19.5 C 26.484375 19.5 28.5 21.515625 28.5 24 C 28.5 26.484375 26.484375 28.5 24 28.5 C 21.515625 28.5 19.5 26.484375 19.5 24 C 19.5 21.515625 21.515625 19.5 24 19.5 Z M 24 19.5 "/>
    <path style=" stroke:none;fill-rule:nonzero;fill:rgb(14.901961%,54.509804%,82.352941%);fill-opacity:1;" d="M 8.183594 29.996094 L 21.457031 29.996094 C 21.539062 29.996094 21.621094 29.984375 21.703125 29.996094 C 21.800781 30.011719 21.832031 30.148438 21.867188 30.242188 C 21.976562 30.535156 22.046875 30.847656 22.125 31.15625 C 22.324219 31.90625 22.582031 32.644531 22.808594 33.386719 C 23.042969 34.148438 23.242188 34.914062 23.441406 35.683594 C 23.535156 36.035156 23.609375 36.382812 23.632812 36.746094 C 23.636719 36.792969 23.671875 36.839844 23.699219 36.839844 C 23.71875 36.773438 23.742188 36.710938 23.769531 36.648438 C 23.835938 36.5 23.917969 36.359375 24.003906 36.222656 C 24.171875 35.949219 24.363281 35.691406 24.539062 35.425781 C 24.742188 35.125 24.933594 34.816406 25.140625 34.519531 C 25.582031 33.878906 26.050781 33.265625 26.507812 32.640625 C 26.976562 32 27.449219 31.363281 27.917969 30.722656 C 28.019531 30.585938 28.125 30.449219 28.21875 30.308594 C 28.292969 30.195312 28.371094 30.0625 28.492188 30.019531 C 28.714844 29.9375 28.976562 29.976562 29.207031 29.988281 C 29.886719 30.023438 30.570312 30 31.253906 30 L 33.4375 30 C 34.164062 30 34.890625 30 35.621094 30 C 35.976562 30 36.335938 29.988281 36.695312 30.023438 C 37.023438 30.054688 37.351562 30.097656 37.675781 30.164062 C 38.875 30.402344 40.101562 30.90625 40.992188 31.894531 C 41.40625 32.359375 41.75 32.933594 41.90625 33.582031 C 42.050781 34.1875 42.023438 34.828125 41.867188 35.429688 C 41.558594 36.636719 40.796875 37.683594 39.894531 38.382812 C 39.332031 38.8125 38.769531 39.210938 38.144531 39.519531 C 37.53125 39.824219 36.894531 40.054688 36.242188 40.214844 C 34.867188 40.554688 33.457031 40.496094 32.058594 40.496094 L 28.78125 40.496094 C 28.8125 40.117188 28.925781 39.746094 29 39.375 C 29.082031 38.972656 29.167969 38.566406 29.253906 38.160156 C 29.421875 37.34375 29.59375 36.523438 29.761719 35.703125 C 29.859375 35.238281 29.949219 34.769531 30.042969 34.300781 C 30.085938 34.074219 30.132812 33.855469 30.183594 33.632812 C 30.210938 33.515625 30.234375 33.34375 30.304688 33.25 C 30.339844 33.199219 30.425781 33.195312 30.476562 33.1875 C 30.585938 33.175781 30.699219 33.175781 30.808594 33.175781 C 31.070312 33.1875 31.332031 33.191406 31.59375 33.191406 L 33.839844 33.191406 C 33.796875 33.589844 33.695312 33.976562 33.609375 34.371094 C 33.519531 34.785156 33.4375 35.210938 33.351562 35.628906 C 33.171875 36.480469 32.988281 37.332031 32.835938 38.191406 C 33.507812 38.191406 34.175781 38.21875 34.839844 38.109375 C 35.179688 38.054688 35.53125 37.945312 35.855469 37.820312 C 36.15625 37.710938 36.445312 37.570312 36.71875 37.394531 C 37.546875 36.855469 38.210938 35.921875 38.25 34.792969 C 38.265625 34.316406 38.152344 33.835938 37.890625 33.457031 C 37.570312 32.988281 37.074219 32.734375 36.585938 32.578125 C 35.363281 32.179688 34.046875 32.328125 32.789062 32.332031 C 32.425781 32.332031 32.0625 32.332031 31.699219 32.347656 C 31.523438 32.347656 31.347656 32.347656 31.171875 32.347656 C 30.996094 32.347656 30.792969 32.320312 30.617188 32.359375 C 30.46875 32.386719 30.367188 32.59375 30.273438 32.710938 C 30.144531 32.878906 30.015625 33.039062 29.890625 33.203125 C 29.644531 33.519531 29.398438 33.832031 29.152344 34.148438 C 28.171875 35.40625 27.199219 36.671875 26.222656 37.933594 C 25.453125 38.929688 24.691406 39.929688 23.914062 40.917969 C 23.441406 41.515625 22.953125 42.101562 22.507812 42.722656 C 22.464844 42.785156 22.402344 42.851562 22.375 42.929688 C 22.375 42.929688 22.375 42.941406 22.375 42.941406 C 22.324219 42.941406 22.320312 42.957031 22.308594 42.894531 C 22.292969 42.808594 22.273438 42.71875 22.25 42.632812 C 22.199219 42.445312 22.136719 42.261719 22.074219 42.078125 C 21.8125 41.3125 21.589844 40.53125 21.347656 39.757812 C 20.859375 38.164062 20.363281 36.566406 19.871094 34.972656 C 19.71875 34.480469 19.5625 33.988281 19.414062 33.5 C 19.335938 33.261719 19.261719 33.023438 19.1875 32.789062 C 19.148438 32.660156 19.089844 32.28125 18.925781 32.28125 C 18.925781 32.503906 18.980469 32.707031 19.042969 32.921875 C 19.117188 33.207031 19.160156 33.496094 19.183594 33.796875 C 19.246094 34.535156 19.179688 35.292969 18.925781 35.984375 C 18.453125 37.265625 17.417969 38.246094 16.398438 38.945312 C 15.320312 39.675781 14.113281 40.128906 12.882812 40.351562 C 12.214844 40.476562 11.550781 40.515625 10.878906 40.511719 C 10.15625 40.511719 9.441406 40.5 8.71875 40.5 L 6 40.5 C 6 40.3125 6.074219 40.105469 6.117188 39.921875 C 6.207031 39.53125 6.285156 39.132812 6.367188 38.734375 C 6.707031 37.101562 7.046875 35.464844 7.390625 33.832031 C 7.425781 33.648438 7.464844 33.472656 7.503906 33.292969 C 7.515625 33.226562 7.5 33.195312 7.566406 33.195312 L 11.085938 33.195312 C 10.738281 34.859375 10.394531 36.527344 10.050781 38.195312 C 10.746094 38.195312 11.445312 38.234375 12.132812 38.101562 C 12.476562 38.039062 12.8125 37.925781 13.140625 37.800781 C 13.410156 37.695312 13.671875 37.585938 13.917969 37.425781 C 14.835938 36.839844 15.585938 35.699219 15.46875 34.445312 C 15.339844 33.054688 14.050781 32.527344 12.996094 32.398438 C 12.359375 32.316406 11.71875 32.335938 11.078125 32.339844 C 10.347656 32.339844 9.617188 32.339844 8.882812 32.339844 L 7.871094 32.339844 C 7.820312 32.339844 7.691406 32.367188 7.691406 32.308594 C 7.691406 32.15625 7.753906 31.984375 7.785156 31.839844 C 7.917969 31.226562 8.050781 30.617188 8.183594 30.003906 "/>
  </g>
</svg>

<svg xmlns="http://www.w3.org/2000/svg" width="64" height="64" viewBox="0 0 48 48">
 <g>
  <path d="m 24 7.5 c -9.113 0 -16.5 7.387 -16.5 16.5 c 0 9.113 7.387 16.5 16.5 16.5 c 9.113 0 16.5 -7.387 16.5 -16.5 c 0 -9.113 -7.387 -16.5 -16.5 -16.5 m 0 11.344 c 2.84 0 5.156 2.316 5.156 5.156 c 0 2.84 -2.316 5.156 -5.156 5.156 c -2.84 0 -5.156 -2.316 -5.156 -5.156 c 0 -2.84 2.316 -5.156 5.156 -5.156 m 0 1.031 c -2.285 0 -4.125 1.84 -4.125 4.125 c 0 2.285 1.84 4.125 4.125 4.125 c 2.285 0 4.125 -1.84 4.125 -4.125 c 0 -2.285 -1.84 -4.125 -4.125 -4.125 m 0 1.547 c 1.426 0 2.578 1.152 2.578 2.578 c 0 1.426 -1.152 2.578 -2.578 2.578 c -1.426 0 -2.578 -1.152 -2.578 -2.578 c 0 -1.426 1.152 -2.578 2.578 -2.578 m 0 0" style="fill:#ede7d5;fill-opacity:1;stroke:none;fill-rule:nonzero"/>
  <path d="m 22.21 22.16 c 0.402 -0.387 0.918 -0.648 1.473 -0.719 l -0.199 -1.516 c -0.891 0.109 -1.703 0.5 -2.344 1.121 m -0.719 -0.73 c 0.801 -0.77 1.836 -1.266 2.941 -1.406 l -1.434 -11.258 c -3.547 0.453 -6.863 2.035 -9.418 4.512 m 7.91 8.152" style="fill:#647a82;fill-opacity:0.255;stroke:none;fill-rule:nonzero"/>
  <path d="m 26.406 24.895 c -0.195 0.523 -0.547 0.98 -1.02 1.285 l 0.832 1.281 c 0.758 -0.484 1.32 -1.188 1.633 -2.023 m 0.961 0.352 c -0.391 1.039 -1.109 1.934 -2.047 2.535 l 6.145 9.543 c 3.01 -1.938 5.316 -4.793 6.559 -8.129 m -10.656 -3.949" style="fill:#fffdfb;fill-opacity:0.463;stroke:none;fill-rule:nonzero"/>
  <path d="m 25.848 25.781 c -0.387 0.402 -0.895 0.68 -1.449 0.77 l 0.254 1.508 c 0.887 -0.141 1.684 -0.559 2.305 -1.203 m 0.742 0.707 c -0.773 0.797 -1.789 1.328 -2.891 1.508 l 1.82 11.199 c 3.531 -0.574 6.789 -2.27 9.258 -4.832 m -8.188 -7.875" style="fill:#647a82;fill-opacity:0.255;stroke:none;fill-rule:nonzero"/>
  <path d="m 21.609 23.06 c 0.207 -0.523 0.566 -0.973 1.047 -1.266 l -0.809 -1.297 c -0.766 0.469 -1.344 1.16 -1.672 1.992 m -0.953 -0.371 c 0.41 -1.031 1.145 -1.914 2.094 -2.5 l -5.965 -9.652 c -3.039 1.879 -5.402 4.691 -6.707 8 m 10.578 4.148" style="fill:#fffdfb;fill-opacity:0.427;stroke:none;fill-rule:nonzero"/>
  <path d="m 24 18 c -3.313 0 -6 2.688 -6 6 c 0 3.313 2.688 6 6 6 c 3.313 0 6 -2.688 6 -6 c 0 -3.313 -2.688 -6 -6 -6 m 0 1.5 c 2.484 0 4.5 2.02 4.5 4.5 c 0 2.484 -2.02 4.5 -4.5 4.5 c -2.484 0 -4.5 -2.02 -4.5 -4.5 c 0 -2.484 2.02 -4.5 4.5 -4.5 m 0 0" style="fill:#647a82;fill-opacity:1;stroke:none;fill-rule:nonzero"/>
  <path d="m 8.184 29.996 l 13.273 0 c 0.082 0 0.164 -0.012 0.246 0 c 0.098 0.016 0.129 0.152 0.164 0.246 c 0.109 0.293 0.18 0.605 0.258 0.914 c 0.199 0.75 0.457 1.488 0.684 2.23 c 0.234 0.762 0.434 1.527 0.633 2.297 c 0.094 0.352 0.168 0.699 0.191 1.063 c 0.004 0.047 0.039 0.094 0.066 0.094 c 0.02 -0.066 0.043 -0.129 0.07 -0.191 c 0.066 -0.148 0.148 -0.289 0.234 -0.426 c 0.168 -0.273 0.359 -0.531 0.535 -0.797 c 0.203 -0.301 0.395 -0.609 0.602 -0.906 c 0.441 -0.641 0.91 -1.254 1.367 -1.879 c 0.469 -0.641 0.941 -1.277 1.41 -1.918 c 0.102 -0.137 0.207 -0.273 0.301 -0.414 c 0.074 -0.113 0.152 -0.246 0.273 -0.289 c 0.223 -0.082 0.484 -0.043 0.715 -0.031 c 0.68 0.035 1.363 0.012 2.047 0.012 l 2.184 0 c 0.727 0 1.453 0 2.184 0 c 0.355 0 0.715 -0.012 1.074 0.023 c 0.328 0.031 0.656 0.074 0.98 0.141 c 1.199 0.238 2.426 0.742 3.316 1.73 c 0.414 0.465 0.758 1.039 0.914 1.688 c 0.145 0.605 0.117 1.246 -0.039 1.848 c -0.309 1.207 -1.07 2.254 -1.973 2.953 c -0.563 0.43 -1.125 0.828 -1.75 1.137 c -0.613 0.305 -1.25 0.535 -1.902 0.695 c -1.375 0.34 -2.785 0.281 -4.184 0.281 l -3.277 0 c 0.031 -0.379 0.145 -0.75 0.219 -1.121 c 0.082 -0.402 0.168 -0.809 0.254 -1.215 c 0.168 -0.816 0.34 -1.637 0.508 -2.457 c 0.098 -0.465 0.188 -0.934 0.281 -1.402 c 0.043 -0.227 0.09 -0.445 0.141 -0.668 c 0.027 -0.117 0.051 -0.289 0.121 -0.383 c 0.035 -0.051 0.121 -0.055 0.172 -0.063 c 0.109 -0.012 0.223 -0.012 0.332 -0.012 c 0.262 0.012 0.523 0.016 0.785 0.016 l 2.246 0 c -0.043 0.398 -0.145 0.785 -0.23 1.18 c -0.09 0.414 -0.172 0.84 -0.258 1.258 c -0.18 0.852 -0.363 1.703 -0.516 2.563 c 0.672 0 1.34 0.027 2 -0.082 c 0.34 -0.055 0.691 -0.164 1.016 -0.289 c 0.301 -0.109 0.59 -0.25 0.863 -0.426 c 0.828 -0.539 1.492 -1.473 1.531 -2.602 c 0.016 -0.477 -0.098 -0.957 -0.359 -1.336 c -0.32 -0.469 -0.816 -0.723 -1.305 -0.879 c -1.223 -0.398 -2.539 -0.25 -3.797 -0.246 c -0.363 0 -0.727 0 -1.09 0.016 c -0.176 0 -0.352 0 -0.527 0 c -0.176 0 -0.379 -0.027 -0.555 0.012 c -0.148 0.027 -0.25 0.234 -0.344 0.352 c -0.129 0.168 -0.258 0.328 -0.383 0.492 c -0.246 0.316 -0.492 0.629 -0.738 0.945 c -0.98 1.258 -1.953 2.523 -2.93 3.785 c -0.77 0.996 -1.531 1.996 -2.309 2.984 c -0.473 0.598 -0.961 1.184 -1.406 1.805 c -0.043 0.063 -0.105 0.129 -0.133 0.207 c 0 0 0 0.012 0 0.012 c -0.051 0 -0.055 0.016 -0.066 -0.047 c -0.016 -0.086 -0.035 -0.176 -0.059 -0.262 c -0.051 -0.188 -0.113 -0.371 -0.176 -0.555 c -0.262 -0.766 -0.484 -1.547 -0.727 -2.32 c -0.488 -1.594 -0.984 -3.191 -1.477 -4.785 c -0.152 -0.492 -0.309 -0.984 -0.457 -1.473 c -0.078 -0.238 -0.152 -0.477 -0.227 -0.711 c -0.039 -0.129 -0.098 -0.508 -0.262 -0.508 c 0 0.223 0.055 0.426 0.117 0.641 c 0.074 0.285 0.117 0.574 0.141 0.875 c 0.063 0.738 -0.004 1.496 -0.258 2.188 c -0.473 1.281 -1.508 2.262 -2.527 2.961 c -1.078 0.73 -2.285 1.184 -3.516 1.406 c -0.668 0.125 -1.332 0.164 -2 0.16 c -0.723 0 -1.438 -0.012 -2.16 -0.012 l -2.719 0 c 0 -0.188 0.074 -0.395 0.117 -0.578 c 0.09 -0.391 0.168 -0.789 0.25 -1.188 c 0.34 -1.633 0.68 -3.27 1.023 -4.902 c 0.035 -0.184 0.074 -0.359 0.113 -0.539 c 0.012 -0.066 -0.004 -0.098 0.063 -0.098 l 3.52 0 c -0.348 1.664 -0.691 3.332 -1.035 5 c 0.695 0 1.395 0.039 2.082 -0.094 c 0.344 -0.063 0.68 -0.176 1.01 -0.301 c 0.27 -0.105 0.531 -0.215 0.777 -0.375 c 0.918 -0.586 1.668 -1.727 1.551 -2.98 c -0.129 -1.391 -1.418 -1.918 -2.473 -2.047 c -0.637 -0.082 -1.277 -0.063 -1.918 -0.059 c -0.73 0 -1.461 0 -2.195 0 l -1.012 0 c -0.051 0 -0.18 0.027 -0.18 -0.031 c 0 -0.152 0.063 -0.324 0.094 -0.469 c 0.133 -0.613 0.266 -1.223 0.398 -1.836" style="fill:#268bd1;fill-opacity:1;stroke:none;fill-rule:nonzero"/>
 </g>
</svg>
